!!!!SEGMENT: pl-cz--iii-257--011_gotschalk-filip-requiem-in-b-lux-aeterna-a.krn
!!!id: 18xx:114
!!!COM: Gotschalk, Filip
!!!OTL: Requiem in B - Lux aeterna - a
!!!PDT:
!!!SMS-siglum: PL-CZ
!!!SMS-shelfmark: III-257
!!!NIFC-rismID:
!!!URL-scan: http://repozytorium.nifc.pl/skany/pl-cz-nut--iii-257
!!!ONB-nifc:
!!!ENC: Anna Matuszewska
!!!END: 2020-03-28
**kern	**fb	**dynam	**kern	**text	**kern	**text	**kern	**text	**kern	**text	**kern	**dynam	**kern	**dynam	**kern	**dynam	**kern	**dynam	**kern	**kern
*part11	*	*part11	*part10	*part10	*part9	*part9	*part8	*part8	*part7	*part7	*part6	*part6	*part5	*part5	*part4	*part4	*part3	*part3	*part2	*part1
*staff11	*	*	*staff10	*staff10	*staff9	*staff9	*staff8	*staff8	*staff7	*staff7	*staff6	*	*staff5	*	*staff4	*	*staff3	*	*staff2	*staff1
*I"Organo	*	*	*I"Basso	*	*I"Tenore	*	*I"Alto	*	*I"Canto	*	*I"Violino Secondo	*	*I"Violino Primo	*	*I"Cornu Secondo in B	*	*I"Cornu Primo in B	*	*I"Clarinetto Secondo	*I"Clarinetto Primo
*I'Org	*	*	*I'B	*	*I'T	*	*I'A	*	*I'C	*	*I'Vln II	*	*I'Vln I	*	*I'Cor II	*	*I'Cor I	*	*I'Cl II	*I'Cl I
*clefF4	*	*	*clefF4	*	*clefC4	*	*clefC3	*	*clefC1	*	*clefG2	*	*clefG2	*	*clefG2	*	*clefG2	*	*clefG2	*clefG2
*	*	*	*	*	*	*	*	*	*	*	*	*	*	*	*ITrd1c2	*	*ITrd1c2	*	*	*
*k[b-e-]	*	*	*k[b-e-]	*	*k[b-e-]	*	*k[b-e-]	*	*k[b-e-]	*	*k[b-e-]	*	*k[b-e-]	*	*k[b-e-]	*	*k[b-e-]	*	*k[b-e-]	*k[b-e-]
*B-:	*	*	*B-:	*	*B-:	*	*B-:	*	*B-:	*	*B-:	*	*B-:	*	*	*	*	*	*B-:	*B-:
*M4/4	*	*	*M4/4	*	*M4/4	*	*M4/4	*	*M4/4	*	*M4/4	*	*M4/4	*	*M4/4	*	*M4/4	*	*M4/4	*M4/4
*met(c)	*	*	*met(c)	*	*met(c)	*	*met(c)	*	*met(c)	*	*met(c)	*	*met(c)	*	*met(c)	*	*met(c)	*	*met(c)	*met(c)
=1	=1	=1	=1	=1	=1	=1	=1	=1	=1	=1	=1	=1	=1	=1	=1	=1	=1	=1	=1	=1
!LO:TX:a:t=Solo	!	!	!LO:TX:a:t=Solo	!	!	!	!	!	!	!	!	!	!	!	!	!	!	!	!	!LO:TX:a:B:t=Andante
!	!	!	!	!	!LO:TX:a:t=2.	!	!	!	!	!	!	!	!	!	!	!	!	!	!	!
8.B-`L	.	p	8.B-	Lux	1r	.	2r	.	2r	.	2r	.	2r	.	1r	.	1r	.	1r	1r
16A`Jk	.	.	16A	ae-	.	.	.	.	.	.	.	.	.	.	.	.	.	.	.	.
8B-`L	.	.	8B-	-ter-	.	.	.	.	.	.	.	.	.	.	.	.	.	.	.	.
8F`J	.	.	8F	-na	.	.	.	.	.	.	.	.	.	.	.	.	.	.	.	.
!	!	!	!	!	!	!	!LO:TX:a:t=Solo.	!	!LO:TX:a:t=Solo	!	!	!	!	!	!	!	!	!	!	!
8BB-L/	.	.	2r	.	.	.	8f	Lu-	8dd	Lu-	8fL	.	8ddL	p	.	.	.	.	.	.
8BB-/	.	.	.	.	.	.	16e-	-ce-	16cc	-ce-	16e-L	.	16ccL	.	.	.	.	.	.	.
.	.	.	.	.	.	.	16d	-at	16b-	-at	16dJJ	.	16b-JJ	.	.	.	.	.	.	.
8F\	4 6	.	.	.	.	.	8d	e-	8b-	e-	8dL	.	8b-L\	.	.	.	.	.	.	.
8FJ\	3 5	.	.	.	.	.	8c	-is	8a	-is	8cJ	.	8aJ	.	.	.	.	.	.	.
!LO:LB:g=original	!	!	!	!	!	!	!	!	!	!	!	!	!	!	!	!	!	!	!	!
=2	=2	=2	=2	=2	=2	=2	=2	=2	=2	=2	=2	=2	=2	=2	=2	=2	=2	=2	=2	=2
8FL	5 3	.	8.c	Lux	1r	.	2r	.	2r	.	2r	.	2r	.	1r	.	1r	.	1r	1r
8F	4 2	.	.	.	.	.	.	.	.	.	.	.	.	.	.	.	.	.	.	.
.	.	.	16B-	ae-	.	.	.	.	.	.	.	.	.	.	.	.	.	.	.	.
8F	5_ 3_	.	8c	-ter-	.	.	.	.	.	.	.	.	.	.	.	.	.	.	.	.
8FJ	x	.	8F	-na.	.	.	.	.	.	.	.	.	.	.	.	.	.	.	.	.
8FL	4	.	2r	.	.	.	8g	lu-	8ee-	lu-	(<8gL	.	8ee-L	.	.	.	.	.	.	.
8F	.	.	.	.	.	.	16f	-ce-	16dd	-ce-	16fL	.	16ddL	.	.	.	.	.	.	.
.	.	.	.	.	.	.	16e-	-at	16cc	-at	16e-JJ)	.	16ccJJ	.	.	.	.	.	.	.
8B-	.	.	.	.	.	.	8e-	e-	8cc	e-	8e-L	.	8ccL	.	.	.	.	.	.	.
8B-J	.	.	.	.	.	.	8d	-is	8b-	-is	8dJ	.	8b-J	.	.	.	.	.	.	.
!	!	!	!	!	!	!	!LO:LB:g=original	!	!	!	!	!	!	!	!	!	!	!	!	!
=3	=3	=3	=3	=3	=3	=3	=3	=3	=3	=3	=3	=3	=3	=3	=3	=3	=3	=3	=3	=3
!LO:TX:a:t=Tutti	!	!	!LO:TX:a:t=Tutti	!	!	!	!	!	!	!	!	!	!	!	!	!	!	!	!	!
4B-`	.	.	4B-	Cum	4B-	Cum	4b-	Cum	4b-	cum	4b-	.	4b-	f	4B-	f	4b-	f	4b-	4b-
8d`L	.	.	8d	san-	8d	san-	8dd	san-	8dd	san-	8ddL	.	8ddL	.	8dL	.	8ddL	.	8ddL	8ddL
8B-`J	.	.	8B-	-ctis	8B-	-ctis	8b-	-ctis	8b-	-ctis	8b-J	.	8b-J	.	8B-J	.	8b-J	.	8b-J	8b-J
!	!	!	!LO:LB:g=original	!	!	!	!	!	!	!	!	!	!	!	!	!	!	!	!	!
8f`L	.	.	8f	tu-	8f	tu-	8f	tu-	8ff	tu-	8fL	.	8ffL	.	8fL	.	8ffL\	.	8fL	8ffL
8F`J	.	.	8F	-is	8F	-is	8f	-is	8f	-is	8fJ	.	8ffJ	.	8fJ	.	8fJ/	.	8fJ	8ffJ
8F`L	.	.	8F	in	8F	in	8f	in	8f	in	(<8fL	.	8ffL	.	4f	.	4f	.	8fL	8ffL
16G`L	.	.	16GLL	ae-	16GLL	ae-	16gLL	ae-	16gLL/	ae-	16gL	.	16ggL	.	.	.	.	.	16gL	16ggL
16A`JJ	.	.	16AJJ	.	16AJJ	.	16aJJ	.	16aJJ	.	16aJJ)	.	16aaJJ	.	.	.	.	.	16aJJ	16aaJJ
!	!	!	!	!	!	!	!	!	!LO:LB:g=original	!	!LO:LB:g=original	!	!LO:LB:g=original	!	!	!	!	!	!	!LO:LB:g=original
=4	=4	=4	=4	=4	=4	=4	=4	=4	=4	=4	=4	=4	=4	=4	=4	=4	=4	=4	=4	=4
8B-'L	.	.	8B-	-ter-	8B-	-ter-	8b-	-ter-	8b-	-ter-	8b-L	.	8bb-L	.	8B-L	.	8b-L	.	8b-L	8bb-L
8B-'J	.	.	8B-	-num	8B-	-num	8b-	-num	8b-	-num	8b-J	.	8bb-J	.	8B-	.	8b-J	.	8b-J	8bb-J
16B-`LL	.	.	8d	in	8d	in	8dd	in	8dd	in	8ddL	.	8dddL	.	8d	.	8ddL	.	8ddL	8dddL
16F`	.	.	.	.	.	.	.	.	.	.	.	.	.	.	.	.	.	.	.	.
16D`	.	.	8B-	ae-	8B-	ae-	8b-	ae-	8b-	ae-	8b-J	.	8dddJ	.	8B-J	.	8b-J	.	8b-J	8bb-J
16BB-`JJ	.	.	.	.	.	.	.	.	.	.	.	.	.	.	.	.	.	.	.	.
!	!	!	!	!	!LO:LB:g=original	!	!	!	!	!	!	!	!	!	!	!	!	!	!	!
8F`L	.	.	8F	-ter-	8F	-ter-	8f	-ter-	8f	-ter-	8fL	.	8ffL	.	8fL	.	8fL	.	8fL	8ffL
8F`J	.	.	8F	-num	8F	-num	8f	-num	8f	-num	8fJ	.	8ffJ	.	8FJ	.	8fJ	.	8fJ	8ffJ
4r	.	.	4r	.	4r	.	4r	.	4r	.	4r	.	4r	.	4r	.	4r	.	4r	4r
!LO:LB:g=original	!	!	!	!	!	!	!	!	!	!	!	!	!	!	!LO:LB:g=original	!	!LO:LB:g=original	!	!LO:LB:g=original	!
=5	=5	=5	=5	=5	=5	=5	=5	=5	=5	=5	=5	=5	=5	=5	=5	=5	=5	=5	=5	=5
!	!	!	!	!	!LO:TX:a:t=2	!	!	!	!	!	!	!	!	!	!	!	!	!	!	!
8FL	.	p	2r	.	1r	.	4a	Cum	4cc	cum	4f 4a	p	4cc	p	1r	.	1r	.	1r	1r
8F	.	.	.	.	.	.	.	.	.	.	.	.	.	.	.	.	.	.	.	.
8F	.	.	.	.	.	.	8a	san-	8cc	san-	8fL 8a	.	8ccL	.	.	.	.	.	.	.
!	!	!	!	!	!	!	!	!	!	!	!LO:TX:a:t=problem:w tym miejscu nadprogramowa kreska taktowa	!	!	!	!	!	!	!	!	!
8FJ	.	.	.	.	.	.	8a	-ctis	8cc	-ctis	8fJ 8a	.	8ccJ	.	.	.	.	.	.	.
!	!	!	!	!	!	!	!LO:LB:g=original	!	!	!	!	!	!	!	!	!	!	!	!	!
8B-L\	.	.	8r	.	.	.	8b-	tu-	8dd	tu-	8fL 8b-	.	8ddL	.	.	.	.	.	.	.
8BB-J/	.	.	16B-	in	.	.	8d	-is	8b-	-is	8dJ	.	8b-J	.	.	.	.	.	.	.
.	.	.	16A	ae-	.	.	.	.	.	.	.	.	.	.	.	.	.	.	.	.
4r	.	.	8B-	-ter-	.	.	4r	.	4r	.	4r	.	4r	.	.	.	.	.	.	.
.	.	.	8BB-	-num	.	.	.	.	.	.	.	.	.	.	.	.	.	.	.	.
!	!	!	!LO:LB:g=original	!	!	!	!	!	!	!	!	!	!	!	!	!	!	!	!	!
=6	=6	=6	=6	=6	=6	=6	=6	=6	=6	=6	=6	=6	=6	=6	=6	=6	=6	=6	=6	=6
*tremolo	*	*	*	*	*	*	*	*	*	*	*	*	*	*	*	*	*	*	*	*
8B-L	.	.	2r	.	1r	.	4b-	cum	4dd	cum	4b-	.	4dd	.	1r	.	1r	.	1r	1r
8B-	.	.	.	.	.	.	.	.	.	.	.	.	.	.	.	.	.	.	.	.
8B-	.	.	.	.	.	.	8b-	san-	8dd	san-	8b-L	.	8ddL	.	.	.	.	.	.	.
8B-J	.	.	.	.	.	.	8b-	-ctis	8dd	-ctis	8b-J	.	8ddJ	.	.	.	.	.	.	.
*Xtremolo	*	*	*	*	*	*	*	*	*	*	*	*	*	*	*	*	*	*	*	*
8FL	7 5	.	8r	.	.	.	8cc	tu-	8ee-	tu-	8ccL	.	8ee-L	.	.	.	.	.	.	.
8FJ	5 3	.	16F	in	.	.	8a	-is	8cc	-is	8aJ	.	8ccJ	.	.	.	.	.	.	.
.	.	.	16En	ae-	.	.	.	.	.	.	.	.	.	.	.	.	.	.	.	.
4r	.	.	8F	-ter-	.	.	4r	.	4r	.	4r	.	4r	.	.	.	.	.	.	.
.	.	.	8F	-num	.	.	.	.	.	.	.	.	.	.	.	.	.	.	.	.
!	!	!	!	!	!	!	!	!	!LO:LB:g=original	!	!	!	!	!	!	!	!	!	!	!
=7	=7	=7	=7	=7	=7	=7	=7	=7	=7	=7	=7	=7	=7	=7	=7	=7	=7	=7	=7	=7
!	!	!	!	!	!	!	!LO:TX:a:t=2p:	!	!	!	!	!	!	!	!	!	!	!	!	!
*tremolo	*	*	*	*	*	*	*	*	*	*	*	*	*	*	*	*	*	*	*	*
8B-L	.	f	8r	.	8r	.	1r	.	8r	.	8r	.	8r	.	8r	.	8r	.	8r	8r
8B-	.	.	8B-	Cum	8d	Cum	.	.	8ff	cum	8ddL	f	8ffL	f	8b-L	.	8ddL	.	8ddL	8ffL
8B-	.	.	8B-	san-	8d	san-	.	.	8ff	san-	8dd	.	8ff	.	8dd	.	8ff	.	8dd	8ff
8B-J	.	.	8B-	-ctis	8d	-ctis	.	.	8ff	-ctis	8ddJ	.	8ffJ	.	8ddJ	.	8ffJ	.	8ddJ	8ffJ
*Xtremolo	*	*	*	*	*	*	*	*	*	*	*	*	*	*	*	*	*	*	*	*
16B-LL	6_ 4_	.	16B-LL	tu-	4e-	tu-	.	.	4gg	tu-	(>4ee-	.	4gg	.	4ee-	.	4gg	.	(>4ee-	4gg
16A	x	.	16AnJJ	.	.	.	.	.	.	.	.	.	.	.	.	.	.	.	.	.
16B-	.	.	16B-LL	.	.	.	.	.	.	.	.	.	.	.	.	.	.	.	.	.
16AJJ	.	.	16AJJ	.	.	.	.	.	.	.	.	.	.	.	.	.	.	.	.	.
8B-L\	5 3	.	8B-	-is	8d	-is	.	.	8ff	-is	8dd)	.	8ff	.	8dd	.	8ff	.	8dd)	8ff
8BB-J/	.	.	8r	.	8r	.	.	.	8r	.	8r	.	8r	.	8r	.	8r	.	8r	8r
!	!	!	!	!	!	!	!	!	!	!	!LO:LB:g=original	!	!LO:LB:g=original	!	!	!	!	!	!	!
=8	=8	=8	=8	=8	=8	=8	=8	=8	=8	=8	=8	=8	=8	=8	=8	=8	=8	=8	=8	=8
16B-LL	6_ 4_	.	16B-LL	tu-	4e-	tu-	1r	.	4gg	tu-	4ee-	.	4gg	.	8r	.	8r	.	(>4ee-	(>4gg
16A	.	.	16A	.	.	.	.	.	.	.	.	.	.	.	.	.	.	.	.	.
16B-	.	.	16B-	.	.	.	.	.	.	.	.	.	.	.	8ee-L	.	8ggL	.	.	.
16AJJ	x	.	16AJJ	.	.	.	.	.	.	.	.	.	.	.	.	.	.	.	.	.
8B-L\	5 3	.	8B-	-is	8d	-is	.	.	8ff	-is	8dd	.	8ff	.	8ddJ	.	8ffJ	.	8dd)	8ff)
8BB-J/	.	.	8r	.	8r	.	.	.	8r	.	8r	.	8r	.	8r	.	8r	.	8r	8r
!	!	!	!LO:LB:g=original	!	!LO:LB:g=original	!	!	!	!	!	!	!	!	!	!	!	!	!	!	!
8BB-L	.	.	4BB-	in	4F	in	.	.	8ffL	in-	4f	.	8ffL	.	2r	.	2r	.	2r	2r
8BB-	.	.	.	.	.	.	.	.	8ddJ	.	.	.	8dd	.	.	.	.	.	.	.
8E-	.	.	4E-	ae-	8GL	ae-	.	.	8ee-L	-ae-	8gL	.	8ee-	.	.	.	.	.	.	.
8E-J	.	.	.	.	8E-J	.	.	.	8ccJ	.	8e-J	.	8ccJ	.	.	.	.	.	.	.
!LO:LB:g=original	!	!	!	!	!	!	!	!	!	!	!	!	!	!	!	!	!	!	!	!
=9	=9	=9	=9	=9	=9	=9	=9	=9	=9	=9	=9	=9	=9	=9	=9	=9	=9	=9	=9	=9
*tremolo	*	*	*2\right	*	*	*	*	*	*	*	*	*	*	*	*	*	*	*	*	*
8FL	6 4	.	2F	-ter-	4D	-ter-	2r	.	4b-	-ter-	4d	.	4b-	.	4d	.	4b-	.	(<4d	4b-'
8F	.	.	.	.	.	.	.	.	.	.	.	.	.	.	.	.	.	.	.	.
8F	5 3	.	.	.	16FLL	.	.	.	16ddLL	.	(<16fLL	.	(>16ddLL	.	8.fL	.	8.ccL	.	4f	(>16ddLL
.	.	.	.	.	16E-	.	.	.	16cc	.	16e-	.	16cc	.	.	.	.	.	.	16cc
8FJ	.	.	.	.	16D	.	.	.	16b-	.	16d	.	16b-	.	.	.	.	.	.	16b-
.	.	.	.	.	16E-JJ	.	.	.	16ccJJ	.	16e-JJ)	.	16ccJJ)	.	16fJk	.	16ccJk	.	.	16ccJJ)
*Xtremolo	*	*	*	*	*	*	*	*	*	*	*	*	*	*	*	*	*	*	*	*
4BB-	.	.	4BB-	-num.	4D	-num	4r	.	8b-	-num	8d	.	8b-	.	8d	.	8b-	.	4d)	4b-/
.	.	.	.	.	.	.	.	.	8r	.	8r	.	8r	.	8r	.	8r	.	.	.
4r	.	.	4r	.	4r	.	8b-	qui-	8dd	qui-	8b-`L	.	8dd`L	p	4r	.	4r	.	4r	4r
.	.	.	.	.	.	.	8b-	-a	8dd	-a	8b-`J	.	8dd`J	.	.	.	.	.	.	.
!	!	!	!	!	!	!	!LO:LB:g=original	!	!LO:LB:g=original	!	!	!	!	!	!	!	!	!	!	!
=10	=10	=10	=10	=10	=10	=10	=10	=10	=10	=10	=10	=10	=10	=10	=10	=10	=10	=10	=10	=10
4r	.	.	4r	.	4r	.	8cc	pi-	8ee-	pi-	(>8ccL	.	(>8ee-L	.	1r	.	1r	.	4r	4r
.	.	.	.	.	.	.	8f	-us	8cc	-us	8aJ)	.	8ccJ)	.	.	.	.	.	.	.
8F`L	.	.	8F	pi-	8c	pi-	4r	.	4r	.	4r	.	4r	.	.	.	.	.	8aL	8cc`L
8F`J	.	.	8F	-us	8c	-us	.	.	.	.	.	.	.	.	.	.	.	.	8aJ	8cc`J
4B-	.	.	4B-	es	4d	es	4r	.	4r	.	4r	.	4r	.	.	.	.	.	4b-/	4dd`
4r	.	.	4r	.	4r	.	8b-	qui-	8dd	qui-	8b-`L	.	8dd`L	.	.	.	.	.	4r	4r
.	.	.	.	.	.	.	8b-	-a	8dd	-a	8b-`J	.	8dd`J	.	.	.	.	.	.	.
!	!	!	!	!	!	!	!	!	!	!	!	!	!	!	!LO:LB:g=original	!	!LO:LB:g=original	!	!	!
=11	=11	=11	=11	=11	=11	=11	=11	=11	=11	=11	=11	=11	=11	=11	=11	=11	=11	=11	=11	=11
.	.	.	.	.	.	.	.	.	8qqff/	.	.	.	.	.	.	.	.	.	.	.
4r	.	.	4r	.	4r	.	8cc	pi-	8ee-	pi-	(>8ccL	.	(>16ffLL	.	2r	.	2r	.	4r	4r
.	.	.	.	.	.	.	.	.	.	.	.	.	16ee-J)	.	.	.	.	.	.	.
.	.	.	.	.	.	.	8f	-us	8cc	-us	8aJ)	.	8ccJ	.	.	.	.	.	.	.
8FL	.	.	8F	pi-	8c	pi-	4r	.	4r	.	4r	.	4r	.	.	.	.	.	8aL	8ccL
8FJ	.	.	8F	-us	8c	-us	.	.	.	.	.	.	.	.	.	.	.	.	8fJ	8ccJ
!	!	!	!	!	!	!	!	!	!	!	!	!	!	!	!	!	!	!	!	!LO:LB:g=original
4B-	.	.	4BB-	es	4d	es	4r	.	4r	.	2r	.	2r	.	4r	.	4r	.	4b-	4dd
!	!	!	!	!	!	!	!	!	!	!	!	!	!	!	!	!	!	!	!	!LO:TX:a:B:t=Adagio
8B-L	.	.	8B-	qui-	8d	qui-	8f	qui-	8b-	qui-	.	.	.	.	8B-L	.	8b-L	.	4r	4r
8B-J	.	.	8B-	-a	8d	-a	8f	-a	8b-	-a	.	.	.	.	8B-J	.	8b-J	.	.	.
!	!	!	!LO:LB:g=original	!	!LO:LB:g=original	!	!	!	!	!	!	!	!	!	!	!	!	!	!LO:LB:g=original	!
=12	=12	=12	=12	=12	=12	=12	=12	=12	=12	=12	=12	=12	=12	=12	=12	=12	=12	=12	=12	=12
*	*	*	*	*	*	*	*	*	*	*	*	*	*2\right	*	*	*	*	*	*	*
4G	6	.	4G	pi-	4.B-	pi-	4g	pi-	4ee-	pi-	2g	f	2ee-	f	4.B-	.	4b-	.	4b-	4ee-
4A	6 5	.	4A	-us	.	.	4g	-us	16ffLL	.	.	.	.	.	.	.	8b-L	.	4cc	(>16ffLL
.	.	.	.	.	.	.	.	.	16ee-	.	.	.	.	.	.	.	.	.	.	16ee-
.	.	.	.	.	8B-	-us	.	.	16dd	-us	.	.	.	.	8B-	.	8b-J	.	.	16dd
.	.	.	.	.	.	.	.	.	16ee-JJ	.	.	.	.	.	.	.	.	.	.	16ee-JJ)
!LO:TX:b:t=Si placet Requiem Da Capo.	!	!	!LO:TX:b:t=Requiem Da Capo	!	!LO:TX:b:t=Requiem Da Capo	!	!LO:TX:b:t=Requiem Da Capo.	!	!LO:TX:a:t=Requiem	!	!LO:TX:b:t=Requiem Da Capo	!	!LO:TX:a:t=Da Capo Requiem	!	!	!	!	!	!	!
*2\right	*	*	*	*	*2\right	*	*2\right	*	*2\right	*	*	*	*	*	*	*	*2\right	*	*	*2\right
2B-	.	.	2B-	es.	2B-	es	2f	es.	2dd	es.	2f	.	2dd	.	2B-	.	2b-	.	2f	2dd
==	==	==	==	==	==	==	==	==	==	==	==	==	==	==	==	==	==	==	==	==
*-	*-	*-	*-	*-	*-	*-	*-	*-	*-	*-	*-	*-	*-	*-	*-	*-	*-	*-	*-	*-
!!!system-decoration: s1,s2,s3,s4,s5,s6,s7,s8,s9,s10,s11
!!!RDF**kern: > = above
!!!RDF**kern: < = below
